X: 1003
T:Untitled
S:CD, Manran by Manran
Z:https://nigelgatherer.com/
M:4/4
L:1/8
K:D
cdef g2 fg | eaaf gfed | cdef g2 eg | afge d2 d2 :|
GE E/E/E GEBE | GEBE D2 EF | GE E/E/E GA B/c/d | edcA dcBA :|

